X: 28858
T: Mympwy Corris
R: polka
M: 2/4
K: Gmajor
g2 d>c|Bd BG|FA DF|G/A/G/F/ ED|
gB d/c/B|B/c/d BG|FA DF|G3:|
BD GD|cE GE|D/F/A d>c|B/c/d BG|
B,D G2|CE A/G/F/E/|D/F/A dF|G2 G2|
fg/a/ fd|gb ge|a/b/a/g/ fe|cA- Ag|
f/g/a de/f/|g/f/g/a/ ba/b/|c'/b/a fd|g3||

